polaris-icons/icons/newicons/CustomersMajor.svg

<svg width="20" height="20" viewBox="0 0 20 20" fill="none" xmlns="http://www.w3.org/2000/svg">
<path fill-rule="evenodd" clip-rule="evenodd" d="M10 3C8.067 3 6.5 4.567 6.5 6.5C6.5 8.433 8.067 10 10 10C11.933 10 13.5 8.433 13.5 6.5C13.5 4.567 11.933 3 10 3ZM8 6.5C8 5.39543 8.89543 4.5 10 4.5C11.1046 4.5 12 5.39543 12 6.5C12 7.60457 11.1046 8.5 10 8.5C8.89543 8.5 8 7.60457 8 6.5Z" fill="black"/>
<path fill-rule="evenodd" clip-rule="evenodd" d="M8.97927 11C6.99392 11 5.08151 11.7483 3.62342 13.0958C3.22599 13.463 3 13.9796 3 14.5207V14.6848C3 15.9634 4.03656 17 5.31522 17H14.6848C15.9634 17 17 15.9634 17 14.6848V14.5207C17 13.9796 16.774 13.463 16.3766 13.0958C14.9185 11.7483 13.0061 11 11.0207 11H8.97927ZM11.0207 12.5C12.6287 12.5 14.1776 13.1061 15.3585 14.1974C15.4487 14.2807 15.5 14.3979 15.5 14.5207V14.6848C15.5 15.135 15.135 15.5 14.6848 15.5H5.31522C4.86499 15.5 4.5 15.135 4.5 14.6848V14.5207C4.5 14.3979 4.55128 14.2807 4.64146 14.1974C5.8224 13.1061 7.37129 12.5 8.97927 12.5H11.0207Z" fill="black"/>
</svg>

<svg viewBox="0 0 20 20" fill="none" xmlns="http://www.w3.org/2000/svg"><path fill-rule="evenodd" clip-rule="evenodd" d="M10 3a3.5 3.5 0 1 0 0 7 3.5 3.5 0 0 0 0-7Zm-2 3.5a2 2 0 1 1 4 0 2 2 0 0 1-4 0Z" fill="#5C5F62"/><path fill-rule="evenodd" clip-rule="evenodd" d="M8.98 11a7.891 7.891 0 0 0-5.357 2.096 1.94 1.94 0 0 0-.623 1.425v.164a2.315 2.315 0 0 0 2.315 2.315h9.37a2.315 2.315 0 0 0 2.315-2.315v-.164a1.94 1.94 0 0 0-.623-1.425 7.891 7.891 0 0 0-5.356-2.096h-2.042Zm2.04 1.5c1.609 0 3.158.606 4.338 1.697.09.084.142.2.142.324v.164c0 .45-.365.815-.815.815h-9.37a.815.815 0 0 1-.815-.815v-.164a.44.44 0 0 1 .141-.324 6.392 6.392 0 0 1 4.338-1.697h2.042Z" fill="#5C5F62"/></svg>
